!!!COM:	Martini, Johannes
!!!CDT:	~1440///-~1497//
!!!OPR:	Missa La Martinella
!!!ONM:	5
!!!OTL:	Agnus Dei
!!!AGN:	Mass; Agnus Dei
!!!SCT:	Mar1009e
!!!SCA:	Mar1009e
!!!voices:	4
**kern	**kern	**kern	**kern
*staff4	*staff3	*staff2	*staff1
*Ivox	*Ivox	*Ivox	*Ivox
*I"Bassus	*I"Tenor	*I"Contratenor	*I"Superius
*I'B	*I'T	*I'Ct	*I'S
*>[A,B,C]	*>[A,B,C]	*>[A,B,C]	*>[A,B,C]
*>A	*>A	*>A	*>A
*clefF4	*clefGv2	*clefGv2	*clefG2
*k[b-]	*k[b-]	*k[b-]	*k[b-]
*M2/1	*M2/1	*M2/1	*M2/1
*met(C|)	*met(C|)	*met(C|)	*met(C|)
!!section: Agnus Dei I
!!!OMD: Agnus Dei I
=1-	=1-	=1-	=1-
0r	0r	0r	0g
=2	=2	=2	=2
0r	0r	0r	1f
.	.	.	1g
=3	=3	=3	=3
0r	0G	0r	0b-
=4	=4	=4	=4
0r	1F	0r	1a
.	1G	.	[1g
=5	=5	=5	=5
0r	0B-	0r	2g/]
.	.	.	4f/
.	.	.	4e/
.	.	.	1d
=6	=6	=6	=6
0r	1A	0r	1f
.	[1G	.	2g/
.	.	.	[2b-\
=7	=7	=7	=7
0r	2G/]	0r	2b-\]
.	4F/	.	4a/
.	4E/	.	4g/
.	1D	.	2f/
.	.	.	[2a/
=8	=8	=8	=8
0r	1F	0r	4a/]
.	.	.	4b-\
.	.	.	2cc\
.	2G/	.	2.b-\
.	[2B-\	.	.
.	.	.	4cc\
=9	=9	=9	=9
0r	2B-\]	0r	2dd\
.	2A/	.	2.cc\
.	1F	.	.
.	.	.	4b-\
.	.	.	4a/
.	.	.	4g/
=10	=10	=10	=10
0r	1A	1r	2f/
.	.	.	2e/
.	2B-\	[1G	2.g/
.	[2d\	.	.
.	.	.	4f/
=11	=11	=11	=11
0r	2d\]	1G]	0d
.	2B-\	.	.
.	1A	1F	.
=12	=12	=12	=12
1r	1G	1G	0r
[1G	1r	[1B-	.
=13	=13	=13	=13
1G]	0r	1B-]	1.d
1F	.	1A	.
.	.	.	2c/
=14	=14	=14	=14
1G	0r	1.G	1e
[1B-	.	.	2.d/
.	.	4F/	.
.	.	4E/	4e/
=15	=15	=15	=15
1B-]	0r	1D	2f/
.	.	.	2g/
1A	.	1F	1a
=16	=16	=16	=16
1.G	0r	2G/	1b-
.	.	1B-	.
.	.	.	2g/
4F\	.	2A/	[2a/
4E\	.	.	.
=17	=17	=17	=17
1D	0r	1F	2a/]
.	.	.	2b-\
1F	.	1A	2a/
.	.	.	2cc\
=18	=18	=18	=18
2G\	0r	2B-\	2b-\
2D\	.	2.d\	2.a/
2F\	.	.	.
.	.	4c\	4g/
2G\	.	2B-\	[2g/
=19	=19	=19	=19
1D	1r	1A	2g/]
.	.	.	2f#i/
1GG	1G	2G/	2g/
.	.	[2d\	2b-\
=20	=20	=20	=20
1r	1F	4d\]	1a
.	.	4c\	.
.	.	2A/	.
1GG	1G	2B-\	[1d
.	.	4A/	.
.	.	4G/	.
=21	=21	=21	=21
1D	2A/	1F	1d]
.	2B-\	.	.
2C/	2c\	1r	2r
2D\	2A/	.	[2dd\
=22	=22	=22	=22
2BB-/	2d\	1G	2dd\]
2C/	2.e\	.	4cc\
.	.	.	4b-\
2D\	.	1F	1a
.	4d\	.	.
2F\	[2d\	.	.
=23	=23	=23	=23
1E	2d\]	1G	1g
.	2c#i\	.	.
2D\	1d	2A/	2f/
2G\	.	2B-\	2g/
=24	=24	=24	=24
2.F\	0r	2c\	2.a/
.	.	2A/	.
4E\	.	.	4g/
2D\	.	2d\	4f/
.	.	.	4e/
[2C/	.	[2e\	[2g/
=25	=25	=25	=25
2C/]	0r	4e\]	4g/]
.	.	4d\	4f/
2D\	.	1d	4e/
.	.	.	4d/
1AA	.	.	1e
.	.	2c#i\	.
=26	=26	=26	=26
1BB-	1D	1d	1d
2AA/	1F	2c\	1r
2D\	.	2A/	.
=27	=27	=27	=27
2BB-/	1G	2B-\	0r
2C/	.	2.G/	.
1AA	1A	.	.
.	.	4E/	.
.	.	2F#i/	.
=28	=28	=28	=28
*>[B,C,D]	*>[B,C,D]	*>[B,C,D]	*>[B,C,D]
*>A	*>A	*>A	*>A
*	*	*	*clefGv2
2GG/	1B-	2G/	1d
1G	.	2d\	.
.	1A	2e\	2c\
2F\	.	2f\	2A/
=29	=29	=29	=29
2G\	2G/	1d	2B-\
2B-\	1d	.	2.G/
1A	.	1r	.
.	.	.	4E/
.	2c\	.	2F/
=30	=30	=30	=30
2G\	2B-\	0r	2G/
2GG/	4A/	.	2B-\
.	4G/	.	.
1D	2F/	.	1A
.	2A/	.	.
=31	=31	=31	=31
2GG/	2B-\	1D	1G
2BB-/	2d\	.	.
1AA	1c	1F	1r
=32	=32	=32	=32
*>[C,D,E]	*>[C,D,E]	*>[C,D,E]	*>[C,D,E]
*>A	*>A	*>A	*>A
*	*	*	*clefG2
1GG	1B-	1G	1d
1D	1r	1A	1f
=33	=33	=33	=33
2r	0r	1B-	1g
2.G\	.	.	.
.	.	1A	1a
4F\	.	.	.
2F\	.	.	.
=34	=34	=34	=34
2G\	0r	2G/	1b-
2.GG/	.	1d	.
.	.	.	1a
4FF/	.	.	.
2FF/	.	2c\	.
=35	=35	=35	=35
4GG/	0r	2B-\	2g/
4AA/	.	.	.
4BB-/	.	4A/	2.dd\
4C/	.	4G/	.
2D\	.	2F/	.
.	.	.	4cc\
2F\	.	2A/	[2cc\
=36	=36	=36	=36
2G\	0r	2B-\	4cc\]
.	.	.	4b-\
2B-\	.	2d\	1b-
1F	.	1c	.
.	.	.	2a/
=37	=37	=37	=37
2.BB-/	0r	1B-	1b-
4C/	.	.	.
2D\	.	1f	1r
2BB-/	.	.	.
=38	=38	=38	=38
2D\	1B-	2f\	0r
2.G\	.	2.e\	.
.	2B-\	.	.
4F\	.	4d\	.
2D\	[2A/	[2d\	.
=39	=39	=39	=39
1E	4A/]	2d\]	0r
.	4G/	.	.
.	1G	2c\	.
1D	.	1d	.
.	2F#i/	.	.
=40	=40	=40	=40
1.GG	1G	1B-	0r
.	1r	2B-\	.
2FF/	.	[2A/	.
=41	=41	=41	=41
2GG/	0r	4A/]	0r
.	.	4G/	.
2BB-/	.	1G	.
1AA	.	.	.
.	.	2F#i/	.
=42	=42	=42	=42
1GG	0r	1.G	1b-
2r	.	.	2b-\
2D\	.	2F/	[2a/
=43	=43	=43	=43
2E\	0r	2G/	4a/]
.	.	.	4g/
2G\	.	2B-\	1g
1D	.	1A	.
.	.	.	2f#i/
=44	=44	=44	=44
2GG/	1d	2G/	0g
2BB-/	.	2D/	.
2C/	2c\	2E/	.
[2GG/	[2B-\	[2D/	.
=45	=45	=45	=45
4GG/]	4B-\]	4D/]	0d
4AA/	4A/	4C/	.
4BB-/	2G/	4D/	.
4C/	.	4E/	.
2D\	2F/	2D/	.
4C/	[2B-\	[2F/	.
4BB-/	.	.	.
=46	=46	=46	=46
1C	2B-\]	2F/]	1r
.	2A/	2E/	.
1BB-	1B-	2F/	1dd
.	.	2D/	.
=47	=47	=47	=47
2AA/	2c\	2F/	2cc\
2GG/	1d	2G/	2.b-\
2BB-/	.	1D	.
.	.	.	4a/
2C/	2e\	.	2g/
=48	=48	=48	=48
2D\	2d\	2d\	2f/
2G\	2B-\	2e\	1b-
1F	1c	1f	.
.	.	.	2a/
=49	=49	=49	=49
2G\	1B-	1d	1b-
2B-\	.	.	.
2A\	1r	2c\	2cc\
[2G\	.	[2B-\	2dd\
=50	=50	=50	=50
4G\]	0r	4B-\]	2g/
4F\	.	4A/	.
4E\	.	2G/	2b-\
4D\	.	.	.
2F\	.	2F/	2a/
2BB-/	.	[2B-\	[2g/
=51	=51	=51	=51
1C	0r	2B-\]	2g/]
.	.	2A/	4f/
.	.	.	4e/
2BB-/	.	2B-\	2.d/
[2D\	.	[2A/	.
.	.	.	4e/
=52	=52	=52	=52
4D\]	1F	4A/]	4f/
4C/	.	4B-\	4g/
2AA/	.	4c\	2a/
.	.	4B-\	.
2GG/	2G/	2d\	2b-\
2D\	2F/	2f\	[2a/
=53	=53	=53	=53
2E-\	2B-\	1e-	4a/]
.	.	.	4g/
2C/	2c\	.	1g
1D	1A	1d	.
.	.	.	2f/
=54	=54	=54	=54
2E-i\	1.G	2B-\	2g/
2.C/	.	1c	2.e/
4BB-/	.	.	4d/
2GG/	[2B-\	[2d\	[2g/
=55	=55	=55	=55
1D	2B-\]	2d\]	2g/]
.	2A/	2d\	2f/
1GG	1G	2.d\	1b-
.	.	4e\	.
=56	=56	=56	=56
*	*	*^	*
0Dl	0Fl	0fl/	0Al\ 0dl\	0al
*	*	*v	*v	*
!!LO:LB:i:g=z
=57||	=57||	=57||	=57||
*>D	*>D	*>D	*>D
*clefF4	*clefGv2	*clefGv2	*clefG2
*k[b-]	*k[b-]	*k[b-]	*k[b-]
*M2/1	*M2/1	*M2/1	*M2/1
*met(C|)	*met(C|)	*met(C|)	*met(C|)
!!section: Agnus Dei II
!!!OMD: Agnus Dei II
0r	0r	0r	0g
=58	=58	=58	=58
0r	0r	0r	1f
.	.	.	[1g
=59	=59	=59	=59
0r	0r	0G	2g/]
.	.	.	4f/
.	.	.	4e/
.	.	.	4d/
.	.	.	4e/
.	.	.	4f/
.	.	.	4g/
=60	=60	=60	=60
0r	0r	1F	1a
.	.	[1G	2g/
.	.	.	[2b-\
=61	=61	=61	=61
0r	0r	2G/]	2b-\]
.	.	4F/	4a/
.	.	4E/	4g/
.	.	4D/	1f
.	.	4E/	.
.	.	4F/	.
.	.	4G/	.
=62	=62	=62	=62
0r	0r	1A	2e/
.	.	.	2f/
.	.	2G/	2g/
.	.	[2B-\	[2d/
=63	=63	=63	=63
0r	0r	2B-\]	2d/]
.	.	4A/	4c/
.	.	4G/	4B-/
.	.	1F	2A/
.	.	.	[2c/
=64	=64	=64	=64
0r	0r	2E/	4c/]
.	.	.	4B-/
.	.	2F/	2A/
.	.	2G/	2G/
.	.	[2D/	2F/
=65	=65	=65	=65
0r	0r	2D/]	1B-
.	.	1G	.
.	.	.	1A
.	.	2F/	.
=66	=66	=66	=66
0r	0r	1B-	2r
.	.	.	1d
.	.	1A	.
.	.	.	2c/
=67	=67	=67	=67
0r	0r	0d	2.f/
.	.	.	4g/
.	.	.	4a/
.	.	.	4b-\
.	.	.	[2a/
=68	=68	=68	=68
0r	0r	0c	2a/]
.	.	.	4g/
.	.	.	4f/
.	.	.	1e
=69	=69	=69	=69
0r	0r	2r	1d
.	.	1G	.
.	.	.	2e/
.	.	2F/	2f/
=70	=70	=70	=70
0r	0r	2.B-\	2d/
.	.	.	2g/
.	.	4c\	.
.	.	4d\	2f/
.	.	4e-i\	.
.	.	[2d\	[2b-\
=71	=71	=71	=71
0r	0r	2d\]	2b-\]
.	.	4c\	4a/
.	.	4B-\	4g/
.	.	1A	1f#i
=72	=72	=72	=72
0r	0r	1G	1g
.	.	2A/	2r
.	.	2B-\	2g/
=73	=73	=73	=73
0r	0r	2G/	2.g/
.	.	2c\	.
.	.	.	4a/
.	.	2B-\	2.b-\
.	.	[2e-i\	.
.	.	.	4a/
=74	=74	=74	=74
0r	0r	2e-\]	2g/
.	.	4d\	2f/
.	.	4c\	.
.	.	1B-	4g/
.	.	.	4f/
.	.	.	4e/
.	.	.	4d/
=75	=75	=75	=75
0r	0r	2c\	1e
.	.	2G/	.
.	.	2.G/	[1d
.	.	4A/	.
=76	=76	=76	=76
0r	0r	2.B-\	0d_
.	.	4A/	.
.	.	2G/	.
.	.	2F/	.
=77	=77	=77	=77
0r	0r	4G/	1d]
.	.	4F/	.
.	.	4E/	.
.	.	4D/	.
.	.	1E	1c#i
=78	=78	=78	=78
0r	0r	1D	[0d
.	.	[1G	.
=79	=79	=79	=79
0r	0r	0G_	1d]
.	.	.	1r
=80	=80	=80	=80
0r	0r	1G]	1g
.	.	1F	1a
=81	=81	=81	=81
0r	0r	1G	2g/
.	.	.	2.b-\
.	.	1r	.
.	.	.	4a/
.	.	.	4g/
.	.	.	4f/
=82	=82	=82	=82
0r	0r	1c	1g
.	.	1d	2f/
.	.	.	2b-\
=83	=83	=83	=83
0r	0r	2c\	2a/
.	.	2.e-i\	2.cc\
.	.	4d\	4b-\
.	.	4c\	[2b-\
.	.	4B-\	.
=84	=84	=84	=84
0r	0r	1c	2b-\]
.	.	.	2a/
.	.	[1B-	1b-
=85	=85	=85	=85
0r	0r	0B-]	2r
.	.	.	2.f/
.	.	.	4e/
.	.	.	2f/
=86	=86	=86	=86
0r	0r	2r	2g/
.	.	2.F/	2a/
.	.	.	2d/
.	.	4E/	.
.	.	2F/	2a/
=87	=87	=87	=87
0r	0r	2G/	2b-\
.	.	2A/	2cc\
.	.	2D/	2.dd\
.	.	2A/	.
.	.	.	4cc\
=88	=88	=88	=88
0r	0r	2B-\	4b-\
.	.	.	4a/
.	.	2c\	2g/
.	.	2.d\	2b-\
.	.	.	2a/
.	.	4c\	.
=89	=89	=89	=89
0r	0r	4B-\	2d/
.	.	4A/	.
.	.	2G/	1g
.	.	1A	.
.	.	.	2f#i/
=90	=90	=90	=90
2r	0r	1G	1g
2.GG/	.	.	.
.	.	1d	1r
4AA/	.	.	.
2BB-/	.	.	.
=91	=91	=91	=91
2C/	0r	2c\	0r
2D\	.	1B-	.
2E\	.	.	.
[2F\	.	4A/	.
.	.	4G/	.
=92	=92	=92	=92
2F\]	0r	2F/	1r
4E\	.	1B-	.
4D\	.	.	.
1C	.	.	2r
.	.	2A/	2c/
=93	=93	=93	=93
2BB-/	0r	1B-	1d
2.GG/	.	.	.
.	.	1r	1e
4AA/	.	.	.
4BB-/	.	.	.
4C/	.	.	.
=94	=94	=94	=94
2D\	0r	1r	2f/
2C/	.	.	2.e/
2.D\	.	2r	.
.	.	.	4d/
.	.	2F/	[2d/
4F\	.	.	.
=95	=95	=95	=95
1E	0r	1G	2d/]
.	.	.	2c#i/
1D	.	1A	1d
=96	=96	=96	=96
2BB-/	0r	2B-\	2r
2D\	.	2.A/	2f/
2C/	.	.	1g
.	.	4G/	.
2BB-/	.	[2G/	.
=97	=97	=97	=97
1AA	0r	2G/]	1a
.	.	2F#i/	.
2GG/	.	2G/	2b-\
2D\	.	2Fni/	[2a/
=98	=98	=98	=98
2E-i\	0r	2B-\	4a/]
.	.	.	4g/
2C/	.	2c\	1g
1D	.	1A	.
.	.	.	2f#i/
=99	=99	=99	=99
2GG/	0r	0G	[0g
2C/	.	.	.
2BB-/	.	.	.
[2C/	.	.	.
=100	=100	=100	=100
4C/]	0r	1r	0g]
4D\	.	.	.
4E\	.	.	.
4F\	.	.	.
4G\	.	[1d	.
4A\	.	.	.
2B-\	.	.	.
=101	=101	=101	=101
2G\	0r	2d\]	0r
2.A\	.	2c\	.
.	.	1B-	.
4G\	.	.	.
[2G\	.	.	.
=102	=102	=102	=102
2G\]	0r	1A	0r
2F#i\	.	.	.
2G\	.	1G	.
[2C/	.	.	.
=103	=103	=103	=103
4C/]	0r	2A/	0r
4D\	.	.	.
4E\	.	1c	.
4F\	.	.	.
1D	.	.	.
.	.	2Bni\	.
=104	=104	=104	=104
2r	0r	1c	0r
2C/	.	.	.
2BB-/	.	1r	.
[2C/	.	.	.
=105	=105	=105	=105
2C/]	0r	1G	0r
4BB-/	.	.	.
4AA/	.	.	.
2GG/	.	1B-	.
2G\	.	.	.
=106	=106	=106	=106
2F\	0r	2A/	0r
1B-	.	1G	.
4A\	.	4F/	.
4G\	.	4E/	.
=107	=107	=107	=107
2B-\	0r	2.D/	0r
1A	.	.	.
.	.	4E/	.
.	.	2F/	.
[2G\	.	2G/	.
=108	=108	=108	=108
2G\]	0r	2B-\	0r
2F\	.	1A	.
2D\	.	.	.
2F\	.	2d\	.
=109	=109	=109	=109
2E\	0r	2c\	0r
1D	.	2.B-\	.
.	.	4A/	.
2C/	.	[2A/	.
=110	=110	=110	=110
1BB-	0r	2A/]	0r
.	.	2G/	.
2r	.	1A	.
[2F\	.	.	.
=111	=111	=111	=111
4F\]	0r	0d	0r
4E\	.	.	.
4D\	.	.	.
4C/	.	.	.
2BB-/	.	.	.
[2B-\	.	.	.
=112	=112	=112	=112
2B-\]	0r	1c	0r
2A\	.	.	.
2B-\	.	[1B-	.
[2E-i\	.	.	.
=113	=113	=113	=113
4E-\]	0r	2B-\]	0r
4D\	.	.	.
4C/	.	4A/	.
4BB-/	.	4G/	.
1C	.	1A	.
=114	=114	=114	=114
2r	0r	1B-	0r
1BB-	.	.	.
.	.	2r	.
2C/	.	[2G/	.
=115	=115	=115	=115
1D	0r	2G/]	0r
.	.	2F/	.
2r	.	2G/	.
[2C/	.	2E/	.
=116	=116	=116	=116
2C/]	0r	1A	0r
2D\	.	.	.
1E	.	2r	.
.	.	[2G/	.
=117	=117	=117	=117
2r	0r	2G/]	0r
1D	.	2F/	.
.	.	1B-	.
2E\	.	.	.
=118	=118	=118	=118
1F	0r	2r	0r
.	.	2A/	.
2r	.	2B-\	.
[2E\	.	2G/	.
=119	=119	=119	=119
2E\]	0r	1c	0r
2F\	.	.	.
1G	.	2r	.
.	.	2B-\	.
=120	=120	=120	=120
2r	0r	2c\	0r
1F	.	2A/	.
.	.	1d	.
2G\	.	.	.
=121	=121	=121	=121
1A	0r	2r	0r
.	.	2c\	.
2G\	.	2e\	.
2F\	.	[2d\	.
=122	=122	=122	=122
2G\	0r	4d\]	0r
.	.	4c\	.
2D\	.	4B-\	.
.	.	4A/	.
2E\	.	2G/	.
2D\	.	[2d\	.
=123	=123	=123	=123
2G\	0r	4d\]	0r
.	.	4B-\	.
2F\	.	2c\	.
2G\	.	2B-\	.
2C/	.	[2A/	.
=124	=124	=124	=124
2D\	0r	4A/]	0r
.	.	4G/	.
2GG/	.	1G	.
1AA	.	.	.
.	.	2F#i/	.
=125	=125	=125	=125
0GGl	0r	0Gl	0gl
!!LO:LB:i:g=z
=126||	=126||	=126||	=126||
*>E	*>E	*>E	*>E
*clefF4	*clefGv2	*clefGv2	*clefG2
*k[b-]	*k[b-]	*k[b-]	*k[b-]
*M2/1	*M2/1	*M2/1	*M2/1
*met(C|)	*met(C|)	*met(C|)	*met(C|)
!!section: Agnus Dei III
!!!OMD: Agnus Dei III
0D	0A	[0d	0f
=127	=127	=127	=127
1BB-	1B-	1d]	1d
1C	[1A	1c	1e
=128	=128	=128	=128
0D	2A/]	[0A	1.f
.	2G/	.	.
.	1F	.	.
.	.	.	4e/
.	.	.	4d/
=129	=129	=129	=129
1AA	2E/	1A]	1c
.	1A	.	.
1BB-	.	1D	1r
.	2G/	.	.
=130	=130	=130	=130
1AA	0A	1E	0a
1D	.	1F	.
=131	=131	=131	=131
2GG/	0r	2G/	1b-
2BB-/	.	2d\	.
2C/	.	2e-i\	[1a
2D\	.	[2d\	.
=132	=132	=132	=132
1E-i	0r	2d\]	2a/]
.	.	2c\	2g/
1D	.	2d\	1f
.	.	[2A/	.
=133	=133	=133	=133
1r	0r	4A/]	2e/
.	.	4B-\	.
.	.	4c\	1a
.	.	4d\	.
2D\	.	1B-	.
2E\	.	.	2g/
=134	=134	=134	=134
2.F\	0r	2A/	1a
.	.	1c	.
4E\	.	.	.
2F\	.	.	1r
2G\	.	4B-\	.
.	.	4A/	.
=135	=135	=135	=135
2B-\	0r	2G/	0r
2.A\	.	2F/	.
.	.	2G/	.
4G\	.	.	.
[2G\	.	2B-\	.
=136	=136	=136	=136
2G\]	0r	1A	1r
2F#i\	.	.	.
1G	.	1G	1d
=137	=137	=137	=137
2F\	1r	0r	2.f/
2.A\	.	.	.
.	.	.	4e/
.	1D	.	2f/
4G\	.	.	.
4F\	.	.	2g/
4E\	.	.	.
=138	=138	=138	=138
1D	2.F/	0r	2b-\
.	.	.	2.a/
.	4E/	.	.
2BB-/	2F/	.	.
.	.	.	4g/
2GG/	2G/	.	[2g/
=139	=139	=139	=139
1D	2B-\	0r	2g/]
.	2.A/	.	2f#i/
1E	.	.	1g
.	4G/	.	.
.	[2G/	.	.
=140	=140	=140	=140
1D	2G/]	1r	1a
.	2F#i/	.	.
1GG	1G	2D/	1b-
.	.	2E/	.
=141	=141	=141	=141
2.D\	0r	2.F/	1a
4C/	.	4E/	.
2D\	.	2F/	1d
2GG/	.	2G/	.
=142	=142	=142	=142
2.D\	1r	2B-\	0r
.	.	2.A/	.
4C/	.	.	.
2D\	[1d	.	.
.	.	4G/	.
2GG/	.	[2G/	.
=143	=143	=143	=143
1AA	2d\]	2G/]	1r
.	2c\	2F#i/	.
2GG/	1B-	1G	[1dd
[2G\	.	.	.
=144	=144	=144	=144
4G\]	1A	2r	2dd\]
4E\	.	.	.
2F\	.	2A/	2cc\
2G\	1G	2B-\	1b-
2B-\	.	2d\	.
=145	=145	=145	=145
1F	2A/	2c\	1a
.	1c	2f\	.
2r	.	2e\	1g
2G\	2B-\	2d\	.
=146	=146	=146	=146
2F\	1c	2f\	2a/
2C/	.	2e\	1cc
1G	1r	1d	.
.	.	.	2bni\
=147	=147	=147	=147
2.C/	1G	2c\	1cc
.	.	1e-	.
4BB-/	.	.	.
2C/	2G/	.	2r
2GG/	[2B-\	[2d\	[2g/
=148	=148	=148	=148
2G\	2B-\]	4d\]	2g/]
.	.	4B-\	.
2F\	2A/	2c\	2a/
1G	2G/	2B-\	2b-\
.	4F/	2c\	[2g/
.	4E/	.	.
=149	=149	=149	=149
1A	1D	2.d\	4g/]
.	.	.	4e/
.	.	.	2f/
.	.	4c\	.
[1G	1r	4B-\	2.g/
.	.	4A/	.
.	.	[2B-\	.
.	.	.	4f/
=150	=150	=150	=150
2G\]	2r	2B-\]	1d
4F\	2G/	4A/	.
4E\	.	4G/	.
1D	2A/	2F/	1r
.	2B-\	[2d\	.
=151	=151	=151	=151
1GG	2G/	2d\]	2r
.	2B-\	4c\	2g/
.	.	4B-\	.
2r	2c\	2A/	2a/
[2G\	2d\	2G/	2b-\
=152	=152	=152	=152
4G\]	1B-	2.d\	2g/
4D\	.	.	.
2G\	.	.	2b-\
.	.	4G/	.
2F\	1A	2A/	2cc\
2D\	.	2F/	4dd\
.	.	.	4cc\
=153	=153	=153	=153
2G\	0r	2B-\	4b-\
.	.	.	4a/
2F\	.	2c\	1a
2D\	.	2d\	.
2G\	.	2B-\	2g/
=154	=154	=154	=154
*	*	*M3/1	*
*	*	*met(3)	*
0D	0.r	0.A	0a
1C	.	.	1r
=155	=155	=155	=155
*M3/1	*M3/1	*M3/1	*M3/1
*met(3)	*met(3)	*met()	*met(3)
1BB-	0.r	0d	0.r
1GG	.	.	.
1AA	.	1c	.
=156	=156	=156	=156
2BB-/	0d	1.B-	0.r
2C/	.	.	.
2D\	.	.	.
2E\	.	2G/	.
1F	1c	1A	.
=157	=157	=157	=157
0BB-	1.B-	1B-	0dd
.	.	1F	.
.	2G/	.	.
1r	1A	1f	1cc
=158	=158	=158	=158
1G	0B-	1.d	1.b-
1.F	.	.	.
.	.	4c\	2g/
.	.	4B-\	.
.	1r	1c	1a
2G\	.	.	.
=159	=159	=159	=159
0B-	0.r	1B-	0b-
.	.	1G	.
1A	.	1F	1r
=160	=160	=160	=160
1.G	0.r	1G	0.r
.	.	1B-	.
2E\	.	.	.
1F#i	.	1A	.
=161	=161	=161	=161
1G	0.r	1.G	0.r
1GG	.	.	.
.	.	2E/	.
1AA	.	1F#i	.
=162	=162	=162	=162
2GG/	0G	1G	0.r
2AA/	.	.	.
2BB-/	.	1r	.
2C/	.	.	.
1D	1F	1r	.
=163	=163	=163	=163
1E-i	1G	0.r	0.r
1.D	1B-	.	.
.	1A	.	.
2C/	.	.	.
=164	=164	=164	=164
1BB-	1.G	0.r	0.r
0AA	.	.	.
.	2E/	.	.
.	1F#i	.	.
=165	=165	=165	=165
0GG	1G	0d	0g
.	1B-	.	.
1D	1A	1d	1f
=166	=166	=166	=166
1E	1G	1c	1g
1D	1.d	0f	1b-
1F	.	.	1a
.	2c\	.	.
=167	=167	=167	=167
0G	2B-\	0d	1g
.	2A/	.	.
.	1B-	.	1.dd
[1B-	1G	1d	.
.	.	.	2cc\
=168	=168	=168	=168
1B-]	1.d	1G	2b-\
.	.	.	2a/
1G	.	1d	1b-
.	2B-\	.	.
1F	1c	1f	2.a/
.	.	.	4g/
=169	=169	=169	=169
1G	1B-	1e	0g
0D	0A	0d	.
.	.	.	1f#i
=170	=170	=170	=170
0.GGl	0.Gl	0.dl	0.gl
==	==	==	==
*-	*-	*-	*-
!!!RDF**kern: l=long note in original notation
!!!RDF**kern: i=editorial accidental
!!!ENC:	Chris Gage 10-21-2014
!!!END:	2014/10/26/
!!!EED:	Jesse Rodin
!!!EEV:	2015/03/09/
!!!ONB:	Translated from MusicXML and edited on 2015/03/09/ by Craig Sapp
!!muse2ps: T^@{OPR}^u^@{ONM}{. }@{OTL}^C^@{COM}^i2I150v85,85,85,150Q16
